svgs/sharp-solid/square-parking-slash.svg

<svg xmlns="http://www.w3.org/2000/svg" viewBox="0 0 640 512"><!--! Font Awesome Pro 6.6.0 by @fontawesome - https://fontawesome.com License - https://fontawesome.com/license (Commercial License) Copyright 2024 Fonticons, Inc. --><path d="M48.4 14.8L29.4 .1 0 38 19 52.7 591.5 497.2l19 14.7L639.9 474l-19-14.7L544 399.6 544 32 96 32l0 19.8-47.6-37zM224 151.1l0-23.1 32 0 80 0c53 0 96 43 96 96c0 26.2-10.5 49.9-27.5 67.3l-51.6-40.1C362 245.5 368 235.5 368 224c0-17.7-14.3-32-32-32l-48 0 0 8.8-64-49.7zM487.4 480L288 322.9l0 29.1 0 32-64 0 0-32 0-64 0-15.5L96 171.6 96 480l391.4 0z"/></svg>

<svg xmlns="http://www.w3.org/2000/svg" viewBox="0 0 640 512"><!--! Font Awesome Pro 6.4.0 by @fontawesome - https://fontawesome.com License - https://fontawesome.com/license (Commercial License) Copyright 2023 Fonticons, Inc. --><path d="M48.4 14.8L29.4 .1 0 38 19 52.7 591.5 497.2l19 14.7L639.9 474l-19-14.7L544 399.6V32H96V51.8l-47.6-37zM224 151.1V128h32 80c53 0 96 43 96 96c0 26.2-10.5 49.9-27.5 67.3l-51.6-40.1C362 245.5 368 235.5 368 224c0-17.7-14.3-32-32-32H288v8.8l-64-49.7zM224 288V272.5L96 171.6V480H487.4L288 322.9V352v32H224V352 288z"/></svg>
